img/bgfaq.svg

<svg width="1920" height="715" fill="none" xmlns="http://www.w3.org/2000/svg"><path opacity=".08" d="M1565.64 149.555l53.5 85.853-7.08 4.408-1.28.793.8 1.274 12.9 20.717.8 1.273 1.27-.792 211.41-131.496 1.27-.793-.79-1.275-12.94-20.744-.79-1.272-1.27.792-7.82 4.863c-3.14-4.061-6.63-6.744-10.38-8.303-4.66-1.94-9.57-2.082-14.44-1.171-9.64 1.806-19.44 7.828-27.41 12.784v.001c-29.35 18.261-57.74 14.202-78.97 5.445-21.27-8.773-35.24-22.221-35.47-22.445l-1.38-1.345-.84-.819-1 .62-79.61 49.565-1.28.793.8 1.274zm80.14-42.351c2.48 2.159 6.91 5.775 12.89 9.764l-3.63 15.656-.34 1.46 1.46.34 4.77 1.113 1.46.342.34-1.463 3.02-13.024a136.19 136.19 0 005.4 2.987l-3.48 14.996-.34 1.459 1.46.341 4.77 1.113 1.47.341.34-1.463 3.07-13.258c2.33 1.037 4.75 2.028 7.25 2.951l-3.21 13.835-.33 1.46 1.46.34 4.77 1.113 1.46.342.34-1.463 3.05-13.148c3.45.999 7.03 1.848 10.73 2.496l-3.37 14.512-.34 1.46 1.46.34 4.77 1.114 1.46.341.34-1.463 3.54-15.257c14.68 1.323 30.81-.777 47.4-9.043l9.17 14.709-142.55 88.692-50.1-80.478 70.04-43.557zm163.12 10.134l-33.81 21.038-8.94-14.344c.47-.279.93-.562 1.4-.851 9.64-5.978 17.88-10.987 25.12-12.313 3.55-.649 6.77-.391 9.76 1.043 2.21 1.058 4.37 2.796 6.47 5.427zm13.37.97l6.15 9.92-200.57 124.756-6.17-9.896 200.59-124.78zM304.549 361.212l1.967 2.406.66-3.037 2.056-9.462.002-.006c5.551-24.774-4.338-48.173-31.115-75.237a98.089 98.089 0 0011.06-60.163l-.001-.008-.001-.008c-4.837-32.956-27.066-60.066-58.852-77.305-31.787-17.238-73.214-24.665-116.736-18.278-43.523 6.388-81.098 25.445-106.62 51.12-25.523 25.675-39.058 58.051-34.227 90.974 4.832 32.923 27.1 60.044 58.923 77.303 31.824 17.259 73.29 24.716 116.813 18.329 17.513-2.571 30.468-5.478 42.032-10.053 11.458-4.533 21.481-10.676 33.187-19.642 13.967-.738 29.42 1.747 43.004 6.367 13.77 4.683 25.408 11.488 31.671 19.142l.001.001 6.176 7.557zM219.4 315.974l-.351.051-.291.204-1.149.803-.03.021-.03.023c-11.373 8.824-20.658 14.648-31.276 18.895-10.633 4.253-22.679 6.955-39.619 9.441-40.366 5.924-78.672-.714-107.928-16.181-29.258-15.467-49.37-39.697-53.666-68.972-4.296-29.274 8.022-58.264 31.61-81.488 23.587-23.222 58.37-40.586 98.703-46.506 40.33-5.918 78.624.756 107.875 16.241 29.249 15.485 49.359 39.712 53.648 68.913a86.61 86.61 0 01-11.87 56.294l-.005.008-.004.009-1.917 3.243-.608 1.028.866.822 2.687 2.555.005.005c21.426 20.829 31.556 38.242 32.153 55-9.683-7.319-22.237-12.763-35.322-16.254-14.234-3.798-29.208-5.315-41.996-4.369l-.054.004-.053.008-1.378.202zm-72.919-150.169l-.614-1.371-1.37.616-117.274 52.685-1.367.614.613 1.367 3.879 8.661.614 1.37 1.37-.615 117.273-52.685 1.367-.614-.612-1.368-3.879-8.66zm-54.036 71.534l-.65-1.353-1.353.651-46.745 22.522-1.35.65.649 1.351 4.108 8.553.65 1.354 1.353-.652 46.745-22.521 1.35-.65-.649-1.351-4.108-8.554zm118.312-64.235l-.729-1.313-1.312.731-91.499 51.013-1.308.729.727 1.309 4.609 8.294.729 1.313 1.312-.731 91.499-51.013 1.308-.729-.727-1.309-4.609-8.294zm-35.195 66.784l-.773-1.288-1.287.775-93.847 56.553-1.282.773.77 1.284 4.885 8.134.773 1.288 1.287-.775 93.847-56.553 1.283-.773-.771-1.284-4.885-8.134zm15.926 32.918l-.667-1.345-1.345.669-41.685 20.746-1.341.667.665 1.342 4.214 8.495.668 1.345 1.344-.669 41.686-20.746 1.341-.667-.666-1.342-4.214-8.495z" fill="#7D869D" stroke="#7D869D" stroke-width="3"/><g opacity=".08" stroke="#505666" stroke-width="10" stroke-miterlimit="10" stroke-linecap="round"><path d="M1885.37 431.655c-25.69-4.285-79.27-1.231-106.04 40.218 10.14-35.788-5.16-51.916-5.16-51.916s-17.57 47.107-45.8 66.344c-8.09-13.148-4.08-33.586 4.95-42.762-62.07 9.585-72.99 110.593-50.8 138.258 22.19 27.666 83.67 45.381 116.22 22.958 32.54-22.423 52.34-20.443 52.34-20.443s-12.35-16.65-44.11-12.274c39.41-7.543 57.37-31.65 58.65-43.41-22.19 13.928-48.2 7.106-46.37 6.034 63.43-36.963 66.12-103.007 66.12-103.007zm-86.11 67.062c-19.49 11.928-114.55 78.134-148.49 109.906m104.79-80.447c5.14-11.036 7.11-24.848 6.36-32.607m-10.09 35.369c2.53-1.105 25.37 6.575 36.39.077"/><path d="M1703.9 525.2c-2.08 10.687-.98 25.658 6.48 35.705 3.31 4.469 16.53 12.167 28.98 12.096"/></g></svg>

<svg width="1920" height="715" viewBox="0 0 1920 715" fill="none" xmlns="http://www.w3.org/2000/svg">
<path opacity="0.08" d="M1565.64 149.555L1619.14 235.408L1612.06 239.816L1610.78 240.609L1611.58 241.883L1624.48 262.6L1625.28 263.873L1626.55 263.081L1837.96 131.585L1839.23 130.792L1838.44 129.517L1825.5 108.773L1824.71 107.501L1823.44 108.293L1815.62 113.156C1812.48 109.095 1808.99 106.412 1805.24 104.853C1800.58 102.913 1795.67 102.771 1790.8 103.682C1781.16 105.488 1771.36 111.51 1763.39 116.466L1763.39 116.467C1734.04 134.728 1705.65 130.669 1684.42 121.912C1663.15 113.139 1649.18 99.6909 1648.95 99.4668L1647.57 98.1218L1646.73 97.3035L1645.73 97.9239L1566.12 147.488L1564.84 148.281L1565.64 149.555ZM1645.78 107.204C1648.26 109.363 1652.69 112.979 1658.67 116.968L1655.04 132.624L1654.7 134.084L1656.16 134.424L1660.93 135.537L1662.39 135.879L1662.73 134.416L1665.75 121.392C1667.47 122.394 1669.27 123.395 1671.15 124.379L1667.67 139.375L1667.33 140.834L1668.79 141.175L1673.56 142.288L1675.03 142.629L1675.37 141.166L1678.44 127.908C1680.77 128.945 1683.19 129.936 1685.69 130.859L1682.48 144.694L1682.15 146.154L1683.61 146.494L1688.38 147.607L1689.84 147.949L1690.18 146.486L1693.23 133.338C1696.68 134.337 1700.26 135.186 1703.96 135.834L1700.59 150.346L1700.25 151.806L1701.71 152.146L1706.48 153.26L1707.94 153.601L1708.28 152.138L1711.82 136.881C1726.5 138.204 1742.63 136.104 1759.22 127.838L1768.39 142.547L1625.84 231.239L1575.74 150.761L1645.78 107.204ZM1808.9 117.338L1775.09 138.376L1766.15 124.032C1766.62 123.753 1767.08 123.47 1767.55 123.181C1777.19 117.203 1785.43 112.194 1792.67 110.868C1796.22 110.219 1799.44 110.477 1802.43 111.911C1804.64 112.969 1806.8 114.707 1808.9 117.338ZM1822.27 118.308L1828.42 128.228L1627.85 252.984L1621.68 243.088L1822.27 118.308Z" fill="#7D869D" stroke="#7D869D" stroke-width="3"/>
<path opacity="0.08" d="M304.549 361.212L306.516 363.618L307.176 360.581L309.232 351.119C309.233 351.117 309.233 351.115 309.234 351.113C314.785 326.339 304.896 302.94 278.119 275.876C288.118 257.532 292 236.449 289.179 215.713L289.178 215.705L289.177 215.697C284.34 182.741 262.111 155.631 230.325 138.392C198.538 121.154 157.111 113.727 113.589 120.114C70.0664 126.502 32.4913 145.559 6.96829 171.234C-18.5543 196.909 -32.0893 229.285 -27.2575 262.208C-22.4258 295.131 -0.158829 322.252 31.6647 339.511C63.4887 356.77 104.955 364.227 148.478 357.84C165.991 355.269 178.946 352.362 190.51 347.787C201.968 343.254 211.991 337.111 223.697 328.145C237.664 327.407 253.117 329.892 266.701 334.512C280.471 339.195 292.109 346 298.372 353.654C298.372 353.654 298.373 353.654 298.373 353.655L304.549 361.212ZM219.4 315.974L219.049 316.025L218.758 316.229L217.609 317.032L217.579 317.053L217.549 317.076C206.176 325.9 196.891 331.724 186.273 335.971C175.64 340.224 163.594 342.926 146.654 345.412C106.288 351.336 67.9819 344.698 38.7257 329.231C9.46834 313.764 -10.6433 289.534 -14.9397 260.259C-19.2361 230.985 -6.91796 201.995 16.6702 178.771C40.2575 155.549 75.0409 138.185 115.373 132.265C155.703 126.347 193.997 133.021 223.248 148.506C252.497 163.991 272.607 188.218 276.896 217.419C279.468 236.995 275.279 256.86 265.026 273.713L265.021 273.721L265.017 273.73L263.1 276.973L262.492 278.001L263.358 278.823L266.045 281.378C266.046 281.38 266.048 281.381 266.05 281.383C287.476 302.212 297.606 319.625 298.203 336.383C288.52 329.064 275.966 323.62 262.881 320.129C248.647 316.331 233.673 314.814 220.885 315.76L220.831 315.764L220.778 315.772L219.4 315.974ZM146.481 165.805L145.867 164.434L144.497 165.05L27.2231 217.735L25.8564 218.349L26.4688 219.716L30.3476 228.377L30.9615 229.747L32.3313 229.132L149.605 176.447L150.972 175.833L150.36 174.465L146.481 165.805ZM92.4449 237.339L91.7947 235.986L90.4417 236.637L43.697 259.159L42.3473 259.809L42.9959 261.16L47.104 269.713L47.7542 271.067L49.1072 270.415L95.852 247.894L97.2016 247.244L96.553 245.893L92.4449 237.339ZM210.757 173.104L210.028 171.791L208.716 172.522L117.217 223.535L115.909 224.264L116.636 225.573L121.245 233.867L121.974 235.18L123.286 234.449L214.785 183.436L216.093 182.707L215.366 181.398L210.757 173.104ZM175.562 239.888L174.789 238.6L173.502 239.375L79.6553 295.928L78.3725 296.701L79.1435 297.985L84.028 306.119L84.8014 307.407L86.0881 306.632L179.935 250.079L181.218 249.306L180.447 248.022L175.562 239.888ZM191.488 272.806L190.821 271.461L189.476 272.13L147.791 292.876L146.45 293.543L147.115 294.885L151.329 303.38L151.997 304.725L153.341 304.056L195.027 283.31L196.368 282.643L195.702 281.301L191.488 272.806Z" fill="#7D869D" stroke="#7D869D" stroke-width="3"/>
<g opacity="0.08">
<path d="M1885.37 431.655C1859.68 427.37 1806.1 430.424 1779.33 471.873C1789.47 436.085 1774.17 419.957 1774.17 419.957C1774.17 419.957 1756.6 467.064 1728.37 486.301C1720.28 473.153 1724.29 452.715 1733.32 443.539C1671.25 453.124 1660.33 554.132 1682.52 581.797C1704.71 609.463 1766.19 627.178 1798.74 604.755C1831.28 582.332 1851.08 584.312 1851.08 584.312C1851.08 584.312 1838.73 567.662 1806.97 572.038C1846.38 564.495 1864.34 540.388 1865.62 528.628C1843.43 542.556 1817.42 535.734 1819.25 534.662C1882.68 497.699 1885.37 431.655 1885.37 431.655Z" stroke="#505666" stroke-width="10" stroke-miterlimit="10" stroke-linecap="round"/>
<path d="M1799.26 498.717C1779.77 510.645 1684.71 576.851 1650.77 608.623" stroke="#505666" stroke-width="10" stroke-miterlimit="10" stroke-linecap="round"/>
<path d="M1755.56 528.176C1760.7 517.14 1762.67 503.328 1761.92 495.569" stroke="#505666" stroke-width="10" stroke-miterlimit="10" stroke-linecap="round"/>
<path d="M1751.83 530.938C1754.36 529.833 1777.2 537.513 1788.22 531.015" stroke="#505666" stroke-width="10" stroke-miterlimit="10" stroke-linecap="round"/>
<path d="M1703.9 525.2C1701.82 535.887 1702.92 550.858 1710.38 560.905C1713.69 565.374 1726.91 573.072 1739.36 573.001" stroke="#505666" stroke-width="10" stroke-miterlimit="10" stroke-linecap="round"/>
</g>
</svg>
